X:1
T:Miss Fisher’s Hornpipe
M:4/4
L:1/8
R:Hornpipe
S:Joshua Gibbons mss (1823-26)
Z:AK/Fiddler’s Companion
K:C
ed|cBcG AGFE|FGAF G2 ed|dBdA GBdf|e2c2c2:|
|:dc|Bcde f2 dB|cdef g2 ec|GABc defd|e2c2c2:|]

